X: 5
T: The Irish Rover
R: barndance
M: 4/4
L: 1/8
K: Dmaj
FE | "D" D2 FG A2 de | "D" f2 ec "G" d2 cB | "D" A2 BA F2 GF | "A7" E6 AF |
"D" D2 FG A2 de | "Bm" f2 ec "G" d2 cB | "D" A2 cd "A7" e2 cA | "D" d6 || AA |
"D" d2 de f2 df | "A7" e2 ec A2 Bc | "D" d2 de f2 df | "A7" e2 cB A2 FE |
"D" D2 FG A2 de | f2 ec "G" d2 cB | "D" A2 cd "A7" e2 cA | "D" d3 c d2 |]


Tune 4786	Setting 23686

